X:5
T:Y Derwydd
T:The Druid
H:The final bar of Part A can be played an octave higher, as it appears in
Blodau'r Grug
M:6/8
R:Jig
K:D
z | FGA AFA | BGB A3 | Bcd efg | fed cBA | FGA AFA | BGB A3 | Bcd efg |
 ABc d2 :: a | afa afa | geg geg | fag fed | ced cBA | afa afa | geg geg |
 fed cde | dAF D2 :|
